X:35
T:Shire of Air
M:9/8
L:1/8
K:GMin
 G2A   B2c   dcB |(A/B/c)A F2B (A/B/c)A| G2A   B2c   dcB |gGG G2B (A/B/c)A:|
(de)d (cd)c (Bc)B|(A/B/c)A F2B (A/B/c)A|(de)d (cd)c (Bc)B|gGG G2B (A/B/c)A:|

% @@@@@@@@@@@@@@@@@@@@@@@@@@@@@@@@@@

%% 36. ===============================================================================

% @JACK ON THE GREEN.@
%
% *FIRST Couple cast off without setting, that again below the 3d Couple.  Lead up thro'
% the 3d Couple, & sett two abreast to the 2d Couple; change hands & sett two abreast to
% 3d Couple.  *First Man turn 3d Woman, 1st Woman the 2d Man at the same time, by the
% right arm; then turn your partner by the left arm.  First Man turn 2d Woman, the Woman
% the 3d Man at the same time, by the right arm; and turn your partner again by the left
% arm.  *FIRST Couple being in the 2d Couple's place proper, then 1st, 2d and 3d Couple
% go six hands quite round.  The same six hands round back again.  *First couple right
% and left with 2d Couple.  Sett to your Partner, and turn.

% @@@@@@@@@@@@@@@@@@@@@@@@@@@@@@@@@@

